dist/img/svg/arrow_classic.svg

<svg width="103" height="104" viewBox="0 0 103 104" fill="none" xmlns="http://www.w3.org/2000/svg">
<path d="M76.5693 58.5705L48.0614 59.4842H0V44.8648H48.0614L76.5693 45.7785L40.5689 11.0573L50.8025 0.82373L102.336 52.1745L50.8025 103.525L40.5689 93.2916L76.5693 58.5705Z" fill="currentColor"/>
</svg>

<svg width="103" height="104" viewBox="0 0 103 104" fill="none" xmlns="http://www.w3.org/2000/svg"><path d="M76.57 58.57l-28.509.914H0v-14.62h48.061l28.508.915-36-34.722L50.802.824l51.534 51.35-51.533 51.351-10.234-10.233 36-34.721z" fill="currentColor"/></svg>
